X:1
T:Title
%%score { ( 1 3 ) | ( 2 4 ) }
L:1/8
M:4/4
K:Bb
V:1 treble nm="Grand Piano"
V:3 treble 
V:2 bass 
V:4 bass 
V:1
 z4 z2[Q:1/4=94] [Fd][Ec] | [DB]2 [DF]2 [DF][Fd][Ec][DB] | [FA][EG][GB][EG] [DF]2 [B,D][CE] | %3
 [DF][DF][FB]c ddcB |[M:9/8] A2 B- B c2- cdc |[M:4/4] [DB]2 [DF]2 [DF][Fd][Fc][_Ad] | %6
 [Ge][Ge][EG][FA] [GB]2 [FA]G | FF[FB][Gc] dcBc |[M:7/8] d2 c2 [B,DB]3 |[M:1/4] AB |[M:4/4] c6 z2 | %11
 B6 z2 | [B,EG][B,EG][B,EG][B,FA] [B,GB][B,^FA][B,GB][B,EG] |[M:9/8] [B,DF]2 [B,FB] [Fd] c2- cdc | %14
[M:4/4] B6 z2 | G6 z2 | [Ge][Ge][Gd][Gc] BBBc |[M:7/8] d2 c2 [DB]3 |] %18
V:2
 z4 z2 [B,,B,][B,,B,] | [B,,B,]2 [B,,B,]2 [B,,B,][B,,B,][B,,B,][B,,B,] | %2
 [E,B,][E,B,][E,B,][E,B,] [B,,B,]2 [B,,F,][B,,F,] | %3
 [B,,B,][B,,B,][D,B,][K:treble][F,A,F] [B,F][B,F][A,CF][G,C=E] | %4
[M:9/8][K:bass] [F,CF]2 [F,DF]- [F,DF] [F,EF]2- [F,EF][F,A,F][F,A,E] | %5
[M:4/4] [B,,B,]2 [B,,B,]2 [B,,B,][B,,B,][B,,B,][B,,B,] | %6
 [E,B,][E,B,][E,B,][E,B,] [E,B,]2 [E,B,][E,B,E] | %7
 [F,B,D][F,B,D][D,B,][E,B,] [F,B,F][F,B,E][F,B,D][F,B,E] |[M:7/8] [F,B,F]2 [F,A,E]2 B,,3 | %9
[M:1/4] CD |[M:4/4] E6[K:treble] z2 | D6[K:bass] z2 | E,E,E,E, E,E,E,E, | %13
[M:9/8] B,,2 D, [B,,B,][K:treble] [F,A,F]2- [F,A,F]FE |[M:4/4] D6[K:bass][K:treble] z2 | %15
 E6[K:bass] z2 | [C,C][C,C][D,B,][E,C] [F,DF][F,DF][F,DF][F,A,F] | %17
[M:7/8] [F,B,F]2 [F,A,E]2 [B,,B,]3 |] %18
V:3
 x8 | x8 | x8 | x8 |[M:9/8] x9 |[M:4/4] x8 | x8 | x8 |[M:7/8] x7 |[M:1/4] x2 | %10
[M:4/4] z2 A,A, A,2 dc | z2 B,B, B,2 [B,DB][B,FA] | x8 |[M:9/8] x9 |[M:4/4] z2 B,B, B,2 dB | %15
 z2 B,B, B,2 [Gc][Gd] | x8 |[M:7/8] x7 |] %18
V:4
 x8 | x8 | x8 | x3[K:treble] x5 |[M:9/8][K:bass] x9 |[M:4/4] x8 | x8 | x8 |[M:7/8] x7 |[M:1/4] x2 | %10
[M:4/4] z2 F,F, F,2[K:treble] FE | z2[K:bass] B,,B,, B,,2 B,,D, | x8 |[M:9/8] x4[K:treble] x5 | %14
[M:4/4] z2[K:bass] B,,B,, B,,2[K:treble] FD | z2[K:bass] E,E, E,2 [E,B,][D,=B,] | x8 |[M:7/8] x7 |] %18

